!!!OTL: No_32_Song_of_Turtle,_the_Medicine-man.krn
!!!REG: Oklahoma and Montana
!!!LANG: Tone
!!!LING_GROUP: Algonquin
!!!SOCIAL_FUNCTION: songs used in treating the sick
**kern
*staff1
=1-
*clefF4
*k[b-e-a-]
*M2/4
16c\LK
8.B-\J
8B-\L
16c\L
16B-\JJ
=2
16B-\LK
8B-\
16A-\Jk
8B-\
8r
=3
16c\LK
8.B-\J
8B-\L
16c\L
16B-\JJ
=4
16B-\LK
8A-\
16F\Jk
16.A-\LL
32A-\JK
8A-\J
=5
16E-\LK
8.A-\J
8A-\L
8A-\J
=6
8A-\L
16A-\L
32F\JJk
32r
16A-\LK
(8.A-\J
=7
16E-\LK)
8.E-\J
8E-\
8r
=8
16D\LK
8.F\J
8E-\L
8E-\J
=9
8E-\L
16E-\L
16C\JJ
8E-\L
8E-\J
=10
*M3/4
2BB-/
4r
=11
*M2/4
16e-\LK
8.B-\J
8B-\L
16e-\L
16B-\JJ
=12
8B-\L
16B-\L
16A-\JJ
8B-\
8r
=13
16e-\LK
8.B-\J
8B-\L
16e-\L
16B-\JJ
=14
8B-\L
16.A-\L
32F\JJk
8A-\L
8A-\J
=15
16E-\LK
8.A-\J
8A-\L
(16c\L
16A-\JJ)
=16
8A-\L
16A-\L
32F\JJk
32r
16A-\LK
(8.A-\J
=17
16E-\LK)
8.E-\J
8E-\
8r
=18
16D\LK
8.F\J
8E-\L
8E-\J
=19
8E-\L
16E-\L
16C\JJ
8E-\L
8E-\J
=20
2BB-/
==
*-
